!!!!SEGMENT: T555_Mai-w21p1m1-10.krn
!!!COM: Martin, Frank
!!!OTL: single movement work
!!!OMD:
!!!AGN: Orchestral
!!!AGN-sub: Concerto
!!!CNT: Swiss
!!!ODT: 1939
!!!OPR: Ballad for Piano and Orchestra
!!!filename: T555_Mai-w21p1m1-10.krn
**kern	**dynam	**kern	**dynam	**kern	**dynam	**kern	**dynam	**kern	**dynam	**kern	**kern	**dynam
*grp:A	*	*grp:A	*	*grp:A	*	*grp:A	*	*grp:A	*gr:A	*grp:A	*grp:B	*
*part6	*	*part5	*	*part4	*	*part3	*	*part2	*	*part1	*part1	*
*staff7	*	*staff6	*	*staff5	*	*staff4	*	*staff3	*	*staff2	*staff1	*staff1/2
*I"Contrabass	*	*I"Violoncello	*	*I"Viola	*	*I"Violin II	*	*I"Violin I	*	*I"Piano	*I"Piano	*
*I'cb	*	*I'vc	*	*I'vla	*	*I'vn	*	*I'vn	*	*I'pf	*I'pf	*
*ICstr	*	*ICstr	*	*ICstr	*	*ICstr	*	*ICstr	*	*ICklav	*ICklav	*
*Icbass	*	*Icello	*	*Iviola	*	*Ivioln	*	*Ivioln	*	*Ipiano	*Ipiano	*
*clefF4	*	*clefF4	*	*clefC3	*	*clefG2	*	*clefG2	*	*clefF4	*clefG2	*
*ITrd7c12	*	*	*	*	*	*	*	*	*	*	*	*
*k[]	*	*k[]	*	*k[]	*	*k[]	*	*k[]	*	*k[]	*k[]	*
*C:	*	*C:	*	*C:	*	*C:	*	*C:	*	*C:	*C:	*
!!LO:TX:omd:tempo:a:t=Molto andante\n[quarter]=80
*M4/4	*	*M4/4	*	*M4/4	*	*M4/4	*	*M4/4	*	*M4/4	*M4/4	*
=1	=1	=1	=1	=1	=1	=1	=1	=1	=1	=1	=1	=1
!LO:TX:a:rj:t=pizz.	!	!LO:TX:a:rj:t=pizz.	!	!LO:TX:a:rj:t=pizz.	!	!	!	!LO:TX:a:t=pizz.	!	!	!LO:TX:t=[quarter]=80	!
4DD"	p	4D" 4d"	p	4D"	p	(>[1d	pp	4d"	p	4r	1r	p
*	*	*	*	*	*	*	*	*	*	*clefG2	*	*
4r	.	4r	.	4r	.	.	.	4r	.	4d 4e 4g	.	.
!	!	!	!	!LO:TX:a:t=arco	!	!	!	!	!	!	!	!
2r	.	2r	.	(2g	pp	.	.	2r	.	4d 4e 4g	.	.
.	.	.	.	.	.	.	.	.	.	4d 4e 4g	.	.
=2	=2	=2	=2	=2	=2	=2	=2	=2	=2	=2	=2	=2
*	*	*	*	*	*	*	*	*	*	*^	*	*
1r	.	1r	.	2e	.	1d_	.	1r	.	(<4d 4g	2e	2r	.
.	.	.	.	.	.	.	.	.	.	4d 4g	.	.	.
.	.	.	.	[2e-X	.	.	.	.	.	4d 4g	[2e-X	4r	.
!	!	!	!	!	!	!	!	!	!	!	!	!LO:TX:a:i:t=dolce cantabile	!
.	.	.	.	.	.	.	.	.	.	4d 4g	.	[4cc#X	.
=3	=3	=3	=3	=3	=3	=3	=3	=3	=3	=3	=3	=3	=3
1r	.	1r	.	4e-])	.	1d_	.	1r	.	4d 4g)	4e-]	2cc#_	.
.	.	.	.	4r	.	.	.	.	.	4d 4g	4e-X	.	.
.	.	.	.	([2b-X	.	.	.	.	.	([2b-X	4d 4e-	8cc#]	.
.	.	.	.	.	.	.	.	.	.	.	.	(4cc#X	.
.	.	.	.	.	.	.	.	.	.	.	4d 4e-	.	.
.	.	.	.	.	.	.	.	.	.	.	.	16ccnLL	.
.	.	.	.	.	.	.	.	.	.	.	.	16dd-XJJ	.
=4	=4	=4	=4	=4	=4	=4	=4	=4	=4	=4	=4	=4	=4
1r	.	1r	.	4b-]	.	1d_	.	1r	.	4b-]	4d 4e-X	2.cc)	.
.	.	.	.	4a)	.	.	.	.	.	2a)	4d 4e-	.	.
.	.	.	.	4r	.	.	.	.	.	.	4d 4e-	.	.
.	.	.	.	([4b-X	.	.	.	.	.	([4b-X	4d 4e-	8r	.
.	.	.	.	.	.	.	.	.	.	.	.	([8cc#X	.
=5	=5	=5	=5	=5	=5	=5	=5	=5	=5	=5	=5	=5	=5
1r	.	1r	.	4b-]	.	1d_	.	1r	.	4b-]	4d 4e-X	8cc#L]	.
.	.	.	.	.	.	.	.	.	.	.	.	16ccnL	<
.	.	.	.	.	.	.	.	.	.	.	.	16dd-XJJ	.
.	.	.	.	4a)	.	.	.	.	.	4a)	4d 4e-	[4cc	.
.	.	.	.	(4b-X	.	.	.	.	.	(4b-	4d 4e-	8cc])	.
.	.	.	.	.	.	.	.	.	.	.	.	(4dd-	.
.	.	.	.	4a)	.	.	.	.	.	4a)	4d 4e-	.	.
.	.	.	.	.	.	.	.	.	.	.	.	8cc)	[[
=6	=6	=6	=6	=6	=6	=6	=6	=6	=6	=6	=6	=6	=6
1r	.	1r	.	[1g-X	>	2d]	.	1r	.	4e-X 4g-X	(2d	([2cc	>
.	.	.	.	.	.	.	.	.	.	4e- 4g-	.	.	.
.	.	.	.	.	]	4d-X)	.	.	.	4e- 4g-	2d-X)	8cc]	.
.	.	.	.	.	.	.	.	.	.	.	.	4.bn)	]
.	.	.	.	.	.	4r	.	.	.	4e- 4g-	.	.	.
=7	=7	=7	=7	=7	=7	=7	=7	=7	=7	=7	=7	=7	=7
1r	.	1r	.	1g-_	.	(>4dn	.	1r	.	4e-X 4g-X	(4dn	4r	.
.	.	.	.	.	.	4d-X)	.	.	.	4e- 4g-	2d-X)	8r	.
.	.	.	.	.	.	.	.	.	.	.	.	([8cc	.
.	.	.	.	.	.	4r	.	.	.	4e- 4g-	.	4.cc]	.
.	.	.	.	.	.	(>[4dn	.	.	.	4e- 4g-	([4dn	.	.
.	.	.	.	.	.	.	.	.	.	.	.	8a-X	.
=8	=8	=8	=8	=8	=8	=8	=8	=8	=8	=8	=8	=8	=8
1r	.	1r	.	1g-_	.	4d]	.	1r	.	4e-X 4g-X	4d]	2.cc-X	.
.	.	.	.	.	.	2.d-X	.	.	.	4e- 4g-	2.d-X	.	.
.	.	.	.	.	.	.	.	.	.	4e- 4g-	.	.	.
.	.	.	.	.	.	.	.	.	.	4e- 4g-	.	4a-X)	.
=9	=9	=9	=9	=9	=9	=9	=9	=9	=9	=9	=9	=9	=9
1r	.	1r	.	2g-_	.	8c)	.	1r	.	4e-X 4g-X	4cn)	4r	.
.	.	.	.	.	.	8r	.	.	.	.	.	.	.
.	.	.	.	.	.	(>2d-X	.	.	.	4e- 4g-	(2d-X	(8a-XL>	.
.	.	.	.	.	.	.	.	.	.	.	.	[>8cc-XJ	.
.	.	.	.	8g-]	.	.	.	.	.	4e- 4g-	.	8cc-L>]	.
.	.	.	.	8r	.	.	.	.	.	.	.	8a-	<
.	.	.	.	([4a-X	.	[4c	.	.	.	4e- 4a-X	[4c	8cc-	.
.	.	.	.	.	.	.	.	.	.	.	.	[>8ffJ	.
=10	=10	=10	=10	=10	=10	=10	=10	=10	=10	=10	=10	=10	=10
!	!	!	!	!	!	!	!	!	!	!	!	!LO:TUP:a	!
1r	.	1r	.	2.a-]	.	4c]	.	1r	.	4e-X 4a-X	4c]	6ff]	.
.	.	.	.	.	.	.	.	.	.	.	.	12ff-X)	.
.	.	.	.	.	.	[2c-X	.	.	.	4e- 4a-	2c-X)	(2ff-X	.
.	.	.	.	.	.	.	.	.	.	4e- 4a-	.	.	.
.	.	.	.	4fn)	.	8c-])	.	.	.	4c- 4a-	4f	4ddn)	[
.	.	.	.	.	.	8r	.	.	.	.	.	.	.
*	*	*	*	*	*	*	*	*	*	*v	*v	*	*
=	=	=	=	=	=	=	=	=	=	=	=	=
*-	*-	*-	*-	*-	*-	*-	*-	*-	*-	*-	*-	*-
!!!system-decoration: [({(s1,s2)})][([(s3,s4)]s5,s6,s7)]
!!!RDF**kern: < = below
!!!RDF**kern: > = above
!!!EED: Claudio de Freitas
!!!EEV: 2021/08/18
!!!EED2: Gabriella Vici
!!!Suter_Work_ID: Mai-21
!!!Suter_Example_Number: 555
!!!Suter_Example_ID: Mai-21/1/1-10
!!!Premiere_Location: Zürich,Switzerland
!!!Other_Tsigs: none
!!!Full_Unit_Duration: 17:21
!!!First_Publication_Year: 1948
!!!First_Public_Performance_Year: 1944
!!!Example_Total_Measures: 10
!!!Example_Timestamp_Duration: 34
!!!Example_Start_Tsig_Type: simple quadruple
!!!Example_Start_Tsig_Mean_Beat_Rate: 80
!!!Example_Start_Tsig_Beat_Rate: 80
!!!Example_Start_Tsig_Beat: quarter
!!!Example_Start_Tsig: 4/4
!!!Example_Start_Timestamp: 0:00
!!!Example_Start_Tempo_Expression: Molto andante
!!!Example_Start_Notated_Beat_Rate: 80
!!!Example_Start_Notated_Beat: quarter
!!!Example_Start_Measure: 1
!!!Example_Metadata_Validated: Y
!!!Example_End_Timestamp: 0:34
!!!Example_End_Measure: 10
!!!Example_Dataset: T
!!!Editorial_Comments:
!!!Death_Place: Naarden,Netherlands
!!!Death_Date: 21-Nov-1974
!!!Changing_Tsig: no
!!!Birth_Place: Geneva,Switzerland
!!!Birth_Date: 15-Sep-1890
!!!Audio_Example_Quarter_Note_Tempo:
!!!Audio_Example_Duration:
!!!EEV2: 2022/02/10
